X: 1003
T: General Stuart's Reel/The New Way of Gildon
P: The Stuart's Rant
C:Bremner 1768, here from Gow's Repository
R:Reel (8x32)
B:RSCDS 10-3
Z:Anselm Lingnau <anselm@strathspey.org>
M:C|
L:1/8
K:A
e|"A"c/d/e f/g/a e2 ce|"Bm"dBfB "E"bBfB|"A"c/d/e f/g/a e2 ce|"E"dBge "A"a2 Ae|
  "A"c/d/e f/g/a e2 ce|"Bm"dBfB "E"bBfB|"A"cefa efce|"E"defg "A"a2 A||
e|"A"cA A/B/A cAcA|"E"BE E/F/E BEBd|"F#m"cA A/B/A cAcA|"E"BE E/F/E "A"e2 Ae|
  "A"cAeA fAeA|"E"GEBE GABd|"a"cA"g#"ec "f#"ae"g#"be|"A"c'a"Bm"d'c' "E"b2"A"a|]
%%center Book10/1003-General_Stuarts_Reel_The_New_Way_of_Gildon-AL.abc

%%sep 1 1 500
%%sep 1 1 500

